!!!OTL: Ritter und Magd Ein Koenigssohn und eine Koenigstochter
!!!ARE: Europa, Osteuropa, Tschechoslowakei, Sudetenland
!!!ARD: Europa%Osteuropa%Ceska Republika@Sudetenland#
!!!ARL: 49.75/15.00#
!!!YOR: 3, S. 61
!!    1908 gedruckt in Wien
!!!SCT: Q0055c
!!!YEM: Copyright 1995, estate of Helmut Schaffrath.
**kern
*ICvox
*Ivox
*M2/4
*k[f#c#]
*D:
{8A
=1
8.f#
16f#
16f#
16f#
16e
16e
=2
8.d
16d
8d
8A}
=3
{8.d
16d
8g
8f#
=4
4f#
8e}
{8A
=5
8e
16e
16e
8e
8d
=6
8.c#
16c#
8c#}
{8B
=7
8A
8A
8f#
8e
=8
4e
8d}
==
!!!AGN: Ballade, Betrug, Schwangerschaft, Tod, Selbstmord, Herr und Magd
!! Grundton in der zweigestrichenen Oktave.
!!    Dritte Zeile = Refrain auf sinnfreie Silben.
!!!ONB: ESAC (Essen Associative Code) Database: BALLADE
!!!AMT: simple duple
!!!AIN: vox
!!!EED: Helmut Schaffrath
!!!EEV: 1.0
*-
!!!title: @{OTL} [@{SCT}]
